src/general/components/img/cardwhite.svg

<svg height="50" viewBox="0 0 50 50" width="50" xmlns="http://www.w3.org/2000/svg"><g fill="#fff"><path d="m41.268 6.396h-32.551c-4.816 0-8.717 3.902-8.717 8.718v19.758c0 4.831 3.901 8.731 8.717 8.731h32.55c4.83 0 8.732-3.9 8.732-8.731v-19.758c.001-4.816-3.901-8.718-8.731-8.718zm-32.551 3.491h32.55c2.921 0 5.256 2.322 5.256 5.227v1.752h-43.033v-1.752c0-2.906 2.322-5.227 5.227-5.227zm32.551 30.241h-32.551c-2.905 0-5.227-2.335-5.227-5.256v-14.53h43.033v14.53c0 2.921-2.335 5.256-5.255 5.256z"/><path d="m9.13 28.477h11.159c.996 0 1.752-.742 1.752-1.728 0-.993-.756-1.749-1.752-1.749h-11.159c-.996 0-1.752.756-1.752 1.749 0 .985.756 1.728 1.752 1.728z"/><path d="m34.316 31.979h-25.186c-.996 0-1.752.743-1.752 1.753 0 .982.756 1.724 1.752 1.724h25.187c.98 0 1.723-.741 1.723-1.724-.001-1.009-.743-1.753-1.724-1.753z"/></g></svg>

<?xml version="1.0" encoding="UTF-8"?>
<svg width="50px" height="50px" viewBox="0 0 50 50" version="1.1" xmlns="http://www.w3.org/2000/svg" xmlns:xlink="http://www.w3.org/1999/xlink">
    <!-- Generator: Sketch 48.2 (47327) - http://www.bohemiancoding.com/sketch -->
    <title>Artboard 5</title>
    <desc>Created with Sketch.</desc>
    <defs></defs>
    <g id="Symbols" stroke="none" stroke-width="1" fill="none" fill-rule="evenodd">
        <g id="Artboard-5" fill="#FFFFFF" fill-rule="nonzero">
            <path d="M41.268,6.396 L8.717,6.396 C3.901,6.396 0,10.298 0,15.114 L0,34.872 C0,39.703 3.901,43.603 8.717,43.603 L41.267,43.603 C46.097,43.603 49.999,39.703 49.999,34.872 L49.999,15.114 C50,10.298 46.098,6.396 41.268,6.396 Z M8.717,9.887 L41.267,9.887 C44.188,9.887 46.523,12.209 46.523,15.114 L46.523,16.866 L3.49,16.866 L3.49,15.114 C3.49,12.208 5.812,9.887 8.717,9.887 Z M41.268,40.128 L8.717,40.128 C5.812,40.128 3.49,37.793 3.49,34.872 L3.49,20.342 L46.523,20.342 L46.523,34.872 C46.523,37.793 44.188,40.128 41.268,40.128 Z" id="Shape"></path>
            <path d="M9.13,28.477 L20.289,28.477 C21.285,28.477 22.041,27.735 22.041,26.749 C22.041,25.756 21.285,25 20.289,25 L9.13,25 C8.134,25 7.378,25.756 7.378,26.749 C7.378,27.734 8.134,28.477 9.13,28.477 Z" id="Shape_1_"></path>
            <path d="M34.316,31.979 L9.13,31.979 C8.134,31.979 7.378,32.722 7.378,33.732 C7.378,34.714 8.134,35.456 9.13,35.456 L34.317,35.456 C35.297,35.456 36.04,34.715 36.04,33.732 C36.039,32.723 35.297,31.979 34.316,31.979 Z" id="Shape_2_"></path>
        </g>
    </g>
</svg>
